!!!OTL:
!!!ONR: No. 6
!! From Madeleine Beland,
!! "Chansons de Voyageurs, Coureurs de Bois et Forestiers"
!! Quebec: Les Presses de l'universite/ Laval, 1982
!! ISBN 2-7637-6942-X
**kern
*clefG2
*k[f#]
*M6/8
8g
4g
8b
=
8dd
8dd
8dd
(8cc#
4dd)
=
(8b
4g)
4a
8b
=
4cc
8a
4dd
8b
=
(8a
8g)
8a
8b
4g
*M9/8
=
16g
16f#
8e
8f#
4.g
4r
8r
*M6/8
=
8g
8a
8b
4cc
8cc
=
8cc
8b
8a
8b
4dd
*M9/8
(8b
4g)
4a
8r
(4dd
8ee)
*M6/8
=
4ffn
8dd
4dd
8b
=
(8a
8g)
8a
8b
4g
=
8.e
8.f#
4.g
=
4r
==
*-
